icons/folder-percent-outline.svg

<svg xmlns="http://www.w3.org/2000/svg" width="24" height="24" viewBox="0 0 24 24">
  <path d="M11,4 C11.2652165,4 11.5195704,4.10535684 11.7071068,4.29289322 L11.7071068,4.29289322 L13.415,6 L19,6 C20.5976809,6 21.9036609,7.24891996 21.9949073,8.82372721 L21.9949073,8.82372721 L22,9 L22,17 C22,18.6568542 20.6568542,20 19,20 L19,20 L5,20 C3.34314575,20 2,18.6568542 2,17 L2,17 L2,7 C2,5.34314575 3.34314575,4 5,4 L5,4 Z M10.585,6 L5,6 C4.44771525,6 4,6.44771525 4,7 L4,7 L4,17 C4,17.5522847 4.44771525,18 5,18 L5,18 L19,18 C19.5522847,18 20,17.5522847 20,17 L20,17 L20,9 C20,8.44771525 19.5522847,8 19,8 L19,8 L13,8 C12.7347835,8 12.4804296,7.89464316 12.2928932,7.70710678 L12.2928932,7.70710678 L10.585,6 Z M15.7071068,15.2928932 C16.0976311,15.6834175 16.0976311,16.3165825 15.7071068,16.7071068 C15.3165825,17.0976311 14.6834175,17.0976311 14.2928932,16.7071068 C13.9023689,16.3165825 13.9023689,15.6834175 14.2928932,15.2928932 C14.6834175,14.9023689 15.3165825,14.9023689 15.7071068,15.2928932 Z M15.7071068,9.29289322 C16.0675907,9.65337718 16.0953203,10.2206082 15.7902954,10.6128994 L15.7071068,10.7071068 L9.70710678,16.7071068 C9.31658249,17.0976311 8.68341751,17.0976311 8.29289322,16.7071068 C7.93240926,16.3466228 7.90467972,15.7793918 8.20970461,15.3871006 L8.29289322,15.2928932 L14.2928932,9.29289322 C14.6834175,8.90236893 15.3165825,8.90236893 15.7071068,9.29289322 Z M9.70710678,9.29289322 C10.0976311,9.68341751 10.0976311,10.3165825 9.70710678,10.7071068 C9.31658249,11.0976311 8.68341751,11.0976311 8.29289322,10.7071068 C7.90236893,10.3165825 7.90236893,9.68341751 8.29289322,9.29289322 C8.68341751,8.90236893 9.31658249,8.90236893 9.70710678,9.29289322 Z"/>
</svg>

<svg xmlns="http://www.w3.org/2000/svg" viewBox="0 0 24 24">
  <path d="M11 4a1 1 0 0 1 .7.3L13.42 6H19a3 3 0 0 1 3 2.82V17a3 3 0 0 1-3 3H5a3 3 0 0 1-3-3V7a3 3 0 0 1 3-3zm-.41 2H5a1 1 0 0 0-1 1v10a1 1 0 0 0 1 1h14a1 1 0 0 0 1-1V9a1 1 0 0 0-1-1h-6a1 1 0 0 1-.7-.3L10.58 6zm5.12 9.3a1 1 0 1 1-1.42 1.4 1 1 0 0 1 1.42-1.4zm0-6a1 1 0 0 1 .08 1.31l-.08.1-6 6a1 1 0 0 1-1.5-1.32l.08-.1 6-6a1 1 0 0 1 1.42 0zm-6 0a1 1 0 1 1-1.42 1.4 1 1 0 0 1 1.42-1.4z"/>
</svg>
